.local/share/icons/Gruvbox-Plus-Dark/mimetypes/scalable/image-webp.svg

<svg width="256" height="256" viewBox="0 0 256 256" fill="none" xmlns="http://www.w3.org/2000/svg">
<g opacity="0.4" filter="url(#filter0_f)">
<path d="M55.0839 15.5636H155.608L216.009 75.7129L216.011 224.609C216.011 233.52 208.749 240.737 199.838 240.737H55.0838C46.1734 240.737 39 233.564 39 224.654V31.6474C39 22.737 46.1734 15.5636 55.0838 15.5636H55.0839Z" fill="#282828"/>
</g>
<path d="M55.0839 15H155.608L216.009 75.1493L216.011 224.045C216.011 232.956 208.749 240.174 199.838 240.174H55.0838C46.1734 240.174 39 233 39 224.09V31.0838C39 22.1734 46.1734 15 55.0838 15H55.0839Z" fill="#ebdbb2"/>
<path opacity="0.2" d="M199.838 240.174C208.749 240.174 216.011 232.956 216.011 224.046L216.01 186.5H39V224.09C39 233 46.1734 240.174 55.0838 240.174H199.838Z" fill="url(#paint0_linear)"/>
<g opacity="0.4">
<path fill-rule="evenodd" clip-rule="evenodd" d="M39.068 58.9434C38.818 54.3824 39.13 27.6944 42.193 25.0074V25.0054L56.664 39.4104H63.998V30.6504H78.666L87.466 39.4104V45.2504H80.131L71.331 54.0094V59.8474L77.199 65.6874H83.065V54.0094H96.268L105.068 62.7694L96.266 72.9864L100.666 77.3664H91.865L83.065 86.1264H77.198L68.398 94.8844V112.402L53.73 97.8034H44.93L39.063 91.9634V76.5894C39.063 74.3255 39.049 72.1681 39.0355 70.0967C39.0096 66.1091 38.9858 62.44 39.068 58.9434ZM60.255 16.7574C61.461 16.2374 82.406 15.9494 83.131 16.0074L83.065 24.8124H68.398L60.255 16.7574ZM147.602 58.3884V54.0084L152.002 49.6284V58.3884H147.602ZM193.071 144.519V135.365L198.939 129.921V144.52H193.071V144.519ZM132.935 16.0524H99.955C99.6642 16.0524 99.417 16.0616 99.1699 16.0709C98.9371 16.0797 98.7043 16.0884 98.435 16.0894L93.333 21.8924L102.133 30.6504V39.8044L112.401 51.0894H118.268V45.2494L127.068 36.4894V30.6494L132.935 24.8114V16.0524ZM125.601 48.1694H130.001L134.401 52.5494H125.601V48.1694ZM85.999 96.3444H81.599L77.199 100.724H85.999V96.3444ZM165.203 89.0454L182.805 89.0454L182.805 94.8844L197.472 109.483H203.339L188.671 124.081L188.87 140.85L170.476 159.157L159.336 147.439V129.921L156.403 127.002V122.622L152.003 118.243H141.735L134.402 110.943V96.3444L144.669 86.1254H162.269L165.203 89.0454ZM81.4438 179.079C81.2701 179.063 81.0965 179.047 80.91 179.034L80.909 179.035L78.665 176.635V157.658L83.064 153.278L83.104 140.19L71.33 129.922V115.322L77.198 109.482H91.866L97.733 115.322H109.467L115.333 121.162V132.84L110.933 137.22V141.598L102.133 150.358V156.198L83.065 173.717L83.093 179.153C82.9384 179.145 82.7575 179.143 82.5764 179.141C82.3887 179.139 82.2009 179.138 82.042 179.128C81.8312 179.116 81.638 179.098 81.445 179.079L81.4438 179.079ZM102.133 70.0674L106.533 65.6874L110.934 70.0674L109.467 71.5274H108L106.533 70.0674H102.133Z" fill="url(#paint1_linear)"/>
<path d="M215.073 91.9644V76.5904C215.073 75.9533 215.078 74.9915 215.085 73.7768L176.936 36.4914H165.204L156.404 45.2514V52.5494H165.204V48.1694H171.071V54.0094L168.136 56.9284L156.403 57.1254L152.003 61.3084H146.136V67.1484L141.735 71.5284V80.2854H150.535L156.403 74.4464H162.27V77.3664L168.136 83.2064H171.071V80.2854L165.204 74.4464H171.071L176.936 80.2854H184.27L179.87 75.9064L184.27 71.5274H188.671L193.071 75.9074H188.671L184.271 80.2854L188.591 84.5854L188.671 89.0454H182.805L200.406 106.563H203.338L206.272 103.644L212.139 97.8044L206.272 91.9644H215.073Z" fill="url(#paint2_linear)"/>
</g>
<path fill-rule="evenodd" clip-rule="evenodd" d="M155.608 20.3191H55.0839C49.1112 20.3191 44.3191 25.1111 44.3191 31.0838V224.09C44.3191 230.063 49.1111 234.855 55.0838 234.855H199.838C205.83 234.855 210.692 229.999 210.692 224.046V75.1493L155.608 20.3191ZM155.608 15H55.0839C46.1735 15 39 22.1734 39 31.0838V224.09C39 233 46.1734 240.174 55.0838 240.174H199.838C208.749 240.174 216.011 232.956 216.011 224.045L216.009 75.1493L155.608 15Z" fill="url(#paint3_linear)"/>
<path d="M79.7484 226H84.1484L88.5884 208.64C88.8684 207.56 89.0284 206.8 89.1084 206.08C89.1884 206.8 89.3484 207.56 89.6684 208.68L94.1884 226H98.5884L104.628 198H99.7884L96.4684 214.48C96.1884 215.72 96.0684 216.48 95.9884 217.12C95.9084 216.48 95.7884 215.72 95.4284 214.44L91.2284 198H87.1484L83.0284 214.48C82.7084 215.76 82.5484 216.52 82.4684 217.16C82.3884 216.52 82.2284 215.76 81.9884 214.48L78.6684 198H73.7484L79.7484 226ZM109.103 226H128.223V221.48H113.903V213.8H122.183V209.28H113.903V202.52H127.343V198H109.103V226ZM133.634 198V226H145.674C152.594 226 155.034 221.6 155.034 217.72C155.034 215.2 153.754 212.44 150.434 211.24C152.914 210.04 154.034 207.84 154.034 205.48C154.034 201.68 151.834 198 145.074 198H133.634ZM144.434 209.28H138.434V202.44H145.194C148.514 202.44 149.194 204.2 149.194 205.84C149.194 207.88 147.634 209.28 144.434 209.28ZM145.954 221.56H138.434V213.72H144.794C149.154 213.72 150.154 215.76 150.154 217.84C150.154 219.56 149.234 221.56 145.954 221.56ZM160.822 226H165.622V215.4H172.462C179.182 215.4 181.862 210.68 181.862 206.68C181.862 202.4 179.422 198 172.462 198H160.822V226ZM172.702 210.84H165.622V202.56H172.702C175.982 202.56 176.902 204.92 176.902 206.68C176.902 208.64 175.782 210.84 172.702 210.84Z" fill="url(#paint4_linear)"/>
<path d="M109.429 106.427L73 176.248H161.035L134.11 124.641L126.52 139.187L109.429 106.427ZM165.813 80C156.321 80 148.626 87.695 148.626 97.187C148.626 106.679 156.321 114.374 165.813 114.374C175.305 114.374 183 106.679 183 97.187C183 87.695 175.305 80 165.813 80Z" fill="url(#paint5_linear)"/>
<path opacity="0.25" d="M155.608 17V61.2306C155.608 70.141 162.867 77.1605 171.777 77.1605L216.009 77.1493V75.1493L155.608 17Z" fill="#282828"/>
<path d="M155.608 15V59.2306C155.608 68.141 162.867 75.1605 171.777 75.1605L216.009 75.1493L155.608 15Z" fill="url(#paint6_linear)"/>
<defs>
<filter id="filter0_f" x="23.8778" y="0.441412" width="207.255" height="255.418" filterUnits="userSpaceOnUse" color-interpolation-filters="sRGB">
<feFlood flood-opacity="0" result="BackgroundImageFix"/>
<feBlend mode="normal" in="SourceGraphic" in2="BackgroundImageFix" result="shape"/>
<feGaussianBlur stdDeviation="7.5611" result="effect1_foregroundBlur"/>
</filter>
<linearGradient id="paint0_linear" x1="72.1366" y1="186.746" x2="72.1841" y2="240.106" gradientUnits="userSpaceOnUse">
<stop stop-color="#83a598"/>
<stop offset="1" stop-color="#458588"/>
</linearGradient>
<linearGradient id="paint1_linear" x1="71.9632" y1="16.7491" x2="72.4046" y2="178.947" gradientUnits="userSpaceOnUse">
<stop stop-color="#83a598"/>
<stop offset="1" stop-color="#458588"/>
</linearGradient>
<linearGradient id="paint2_linear" x1="71.9632" y1="16.7491" x2="72.4046" y2="178.947" gradientUnits="userSpaceOnUse">
<stop stop-color="#83a598"/>
<stop offset="1" stop-color="#458588"/>
</linearGradient>
<linearGradient id="paint3_linear" x1="72.1366" y1="16.0339" x2="72.9729" y2="239.888" gradientUnits="userSpaceOnUse">
<stop stop-color="#83a598"/>
<stop offset="1" stop-color="#458588"/>
</linearGradient>
<linearGradient id="paint4_linear" x1="72.1345" y1="187.243" x2="72.1809" y2="239.933" gradientUnits="userSpaceOnUse">
<stop stop-color="#83a598"/>
<stop offset="1" stop-color="#458588"/>
</linearGradient>
<linearGradient id="paint5_linear" x1="93.5921" y1="80.4419" x2="93.838" y2="176.126" gradientUnits="userSpaceOnUse">
<stop stop-color="#83a598"/>
<stop offset="1" stop-color="#458588"/>
</linearGradient>
<linearGradient id="paint6_linear" x1="166.915" y1="15.2762" x2="167.09" y2="75.0844" gradientUnits="userSpaceOnUse">
<stop stop-color="#83a598"/>
<stop offset="1" stop-color="#458588"/>
</linearGradient>
</defs>
</svg>

<svg width="256" height="256" fill="none" version="1.1" viewBox="0 0 256 256" xmlns="http://www.w3.org/2000/svg">
  <path d="m55.08 15h100.5l60.4 60.15 2e-3 148.9c0 8.911-7.262 16.13-16.17 16.13h-144.8c-8.91 0-16.08-7.174-16.08-16.08v-193c0-8.91 7.173-16.08 16.08-16.08h1e-4z" fill="#ebdbb2"/>
  <path d="m199.8 240.2c8.911 0 16.17-7.218 16.17-16.13l-1e-3 -37.55h-177v37.59c0 8.91 7.173 16.08 16.08 16.08h144.8z" fill="url(#paint0_linear)" opacity=".2"/>
  <g fill="url(#paint1_linear)" opacity=".4">
    <path d="m39.07 58.94c-0.25-4.561 0.062-31.25 3.125-33.94v-2e-3l14.47 14.4h7.334v-8.76h14.67l8.8 8.76v5.84h-7.335l-8.8 8.759v5.838l5.868 5.84h5.866v-11.68h13.2l8.8 8.76-8.802 10.22 4.4 4.38h-8.801l-8.8 8.76h-5.867l-8.8 8.758v17.52l-14.67-14.6h-8.8l-5.867-5.84v-15.37c0-2.264-0.014-4.421-0.0275-6.493-0.0259-3.988-0.0497-7.657 0.0325-11.15zm21.19-42.19c1.206-0.52 22.15-0.808 22.88-0.75l-0.066 8.805h-14.67l-8.143-8.055zm87.35 41.63v-4.38l4.4-4.38v8.76h-4.4zm45.47 86.13v-9.154l5.868-5.444v14.6h-5.868v-1e-3zm-60.14-128.5h-32.98c-0.2908 0-0.538 0.0092-0.7851 0.0185-0.2328 0.0088-0.4656 0.0175-0.7349 0.0185l-5.102 5.803 8.8 8.758v9.154l10.27 11.28h5.867v-5.84l8.8-8.76v-5.84l5.867-5.838v-8.759zm-7.334 32.12h4.4l4.4 4.38h-8.8v-4.38zm-39.6 48.18h-4.4l-4.4 4.38h8.8v-4.38zm79.2-7.299h17.6v5.839l14.67 14.6h5.867l-14.67 14.6 0.199 16.77-18.39 18.31-11.14-11.72v-17.52l-2.933-2.919v-4.38l-4.4-4.379h-10.27l-7.333-7.3v-14.6l10.27-10.22h17.6l2.934 2.92zm-83.76 90.03c-0.1737-0.016-0.3473-0.032-0.5338-0.045l-1e-3 1e-3 -2.244-2.4v-18.98l4.399-4.38 0.04-13.09-11.77-10.27v-14.6l5.868-5.84h14.67l5.867 5.84h11.73l5.866 5.84v11.68l-4.4 4.38v4.378l-8.8 8.76v5.84l-19.07 17.52 0.028 5.436c-0.1546-8e-3 -0.3355-0.01-0.5166-0.012-0.1877-2e-3 -0.3755-3e-3 -0.5344-0.013-0.2108-0.012-0.404-0.03-0.597-0.049h-0.0012zm20.69-109 4.4-4.38 4.401 4.38-1.467 1.46h-1.467l-1.467-1.46h-4.4z" clip-rule="evenodd" fill-rule="evenodd"/>
    <path d="m215.1 91.96v-15.37c0-0.6371 5e-3 -1.599 0.012-2.814l-38.15-37.29h-11.73l-8.8 8.76v7.298h8.8v-4.38h5.867v5.84l-2.935 2.919-11.73 0.197-4.4 4.183h-5.867v5.84l-4.401 4.38v8.757h8.8l5.868-5.839h5.867v2.92l5.866 5.84h2.935v-2.921l-5.867-5.839h5.867l5.865 5.839h7.334l-4.4-4.379 4.4-4.379h4.401l4.4 4.38h-4.4l-4.4 4.378 4.32 4.3 0.08 4.46h-5.866l17.6 17.52h2.932l8.801-8.759-5.867-5.84h8.801z"/>
  </g>
  <path d="m155.6 20.32h-100.5c-5.973 0-10.76 4.792-10.76 10.76v193c0 5.973 4.792 10.76 10.76 10.76h144.8c5.992 0 10.85-4.856 10.85-10.81v-148.9l-55.08-54.83zm0-5.319h-100.5c-8.91 0-16.08 7.173-16.08 16.08v193c0 8.91 7.173 16.08 16.08 16.08h144.8c8.911 0 16.17-7.218 16.17-16.13l-2e-3 -148.9-60.4-60.15z" clip-rule="evenodd" fill="url(#paint3_linear)" fill-rule="evenodd"/>
  <path d="m79.75 226h4.4l4.44-17.36c0.28-1.08 0.44-1.84 0.52-2.56 0.08 0.72 0.24 1.48 0.56 2.6l4.52 17.32h4.4l6.04-28h-4.84l-3.32 16.48c-0.28 1.24-0.4 2-0.48 2.64-0.08-0.64-0.2-1.4-0.56-2.68l-4.2-16.44h-4.08l-4.12 16.48c-0.32 1.28-0.48 2.04-0.56 2.68-0.08-0.64-0.24-1.4-0.48-2.68l-3.32-16.48h-4.92l6 28zm29.35 0h19.12v-4.52h-14.32v-7.68h8.28v-4.52h-8.28v-6.76h13.44v-4.52h-18.24v28zm24.53-28v28h12.04c6.92 0 9.36-4.4 9.36-8.28 0-2.52-1.28-5.28-4.6-6.48 2.48-1.2 3.6-3.4 3.6-5.76 0-3.8-2.2-7.48-8.96-7.48h-11.44zm10.8 11.28h-6v-6.84h6.76c3.32 0 4 1.76 4 3.4 0 2.04-1.56 3.44-4.76 3.44zm1.52 12.28h-7.52v-7.84h6.36c4.36 0 5.36 2.04 5.36 4.12 0 1.72-0.92 3.72-4.2 3.72zm14.87 4.44h4.8v-10.6h6.84c6.72 0 9.4-4.72 9.4-8.72 0-4.28-2.44-8.68-9.4-8.68h-11.64v28zm11.88-15.16h-7.08v-8.28h7.08c3.28 0 4.2 2.36 4.2 4.12 0 1.96-1.12 4.16-4.2 4.16z" fill="url(#paint4_linear)"/>
  <path d="m109.4 106.4-36.43 69.82h88.04l-26.92-51.61-7.59 14.55-17.09-32.76zm56.38-26.43c-9.492 0-17.19 7.695-17.19 17.19s7.695 17.19 17.19 17.19 17.19-7.695 17.19-17.19-7.695-17.19-17.19-17.19z" fill="url(#paint5_linear)"/>
  <path d="m155.6 17v44.23c0 8.91 7.259 15.93 16.17 15.93l44.23-0.0112v-2l-60.4-58.15z" fill="#282828" opacity=".25"/>
  <path d="m155.6 15v44.23c0 8.91 7.259 15.93 16.17 15.93l44.23-0.0112-60.4-60.15z" fill="url(#paint6_linear)"/>
  <defs>
    <linearGradient id="paint0_linear" x1="72.14" x2="72.18" y1="186.7" y2="240.1" gradientUnits="userSpaceOnUse">
      <stop stop-color="#83a598" offset="0"/>
      <stop stop-color="#458588" offset="1"/>
    </linearGradient>
    <linearGradient id="paint1_linear" x1="71.96" x2="72.4" y1="16.75" y2="178.9" gradientUnits="userSpaceOnUse">
      <stop stop-color="#83a598" offset="0"/>
      <stop stop-color="#458588" offset="1"/>
    </linearGradient>
    <linearGradient id="paint3_linear" x1="72.14" x2="72.97" y1="16.03" y2="239.9" gradientUnits="userSpaceOnUse">
      <stop stop-color="#83a598" offset="0"/>
      <stop stop-color="#458588" offset="1"/>
    </linearGradient>
    <linearGradient id="paint4_linear" x1="72.13" x2="72.18" y1="187.2" y2="239.9" gradientUnits="userSpaceOnUse">
      <stop stop-color="#83a598" offset="0"/>
      <stop stop-color="#458588" offset="1"/>
    </linearGradient>
    <linearGradient id="paint5_linear" x1="93.59" x2="93.84" y1="80.44" y2="176.1" gradientUnits="userSpaceOnUse">
      <stop stop-color="#83a598" offset="0"/>
      <stop stop-color="#458588" offset="1"/>
    </linearGradient>
    <linearGradient id="paint6_linear" x1="166.9" x2="167.1" y1="15.28" y2="75.08" gradientUnits="userSpaceOnUse">
      <stop stop-color="#83a598" offset="0"/>
      <stop stop-color="#458588" offset="1"/>
    </linearGradient>
  </defs>
</svg>
